movekom_app/assets/icons/bat_enchufe.svg

<svg height="59.274" viewBox="0 0 52.185 59.274" width="52.185" xmlns="http://www.w3.org/2000/svg"><path d="m19.94 7.212h-13.152v-3.912a3.3 3.3 0 0 1 3.3-3.3h6.543a3.3 3.3 0 0 1 3.309 3.3zm6.787 0h-26.727v50.062h26.728zm23.458 12.919h-18.772v-4.454h18.772zm-1.909 11.613h-14.476v-11.613h14.476zm-7.238 4.985a2.307 2.307 0 0 1 -2.307-2.307v-2.622h4.614v2.625a2.307 2.307 0 0 1 -2.307 2.304zm-2.784-21.052h-3.342v-7.717a1.671 1.671 0 0 1 1.672-1.67 1.67 1.67 0 0 1 1.67 1.671zm8.962-.053h-3.341v-7.715a1.671 1.671 0 0 1 1.671-1.671 1.671 1.671 0 0 1 1.671 1.671zm-26.728 16.737h-7.474l1.475 12.42-9.262-16.63 7.473-.105v-10.846zm20.523 4.545v10.34a4.3 4.3 0 1 1 -8.591 0v-10.279a5.682 5.682 0 0 0 -5.62-5.629" fill="none" stroke="#94e538" stroke-miterlimit="10" stroke-width="2" transform="translate(1 1)"/></svg>

<svg xmlns="http://www.w3.org/2000/svg" width="52.185" height="59.274" viewBox="0 0 52.185 59.274">
  <path id="Trazado_721" data-name="Trazado 721" d="M19.94,7.212H6.788V3.3a3.3,3.3,0,0,1,3.3-3.3h6.543A3.3,3.3,0,0,1,19.94,3.3Zm6.787,0H0V57.274H26.728ZM50.185,20.131H31.413V15.677H50.185ZM48.276,31.744H33.8V20.131H48.276Zm-7.238,4.985h0a2.307,2.307,0,0,1-2.307-2.307V31.8h4.614v2.625A2.307,2.307,0,0,1,41.038,36.729ZM38.254,15.677H34.912V7.96A1.671,1.671,0,0,1,36.584,6.29h0a1.67,1.67,0,0,1,1.67,1.671Zm8.962-.053H43.875V7.909a1.671,1.671,0,0,1,1.671-1.671h0a1.671,1.671,0,0,1,1.671,1.671ZM20.488,32.361H13.014l1.475,12.42L5.227,28.151l7.473-.105V17.2Zm20.523,4.545v10.34a4.3,4.3,0,1,1-8.591,0V36.967A5.682,5.682,0,0,0,26.8,31.338" transform="translate(1 1)" fill="none" stroke="#94e538" stroke-miterlimit="10" stroke-width="2"/>
</svg>
